; G-Code generated by Simplify3D(R) Version 4.0.0
; Jan 2, 2018 at 8:07:03 PM
; Settings Summary
;   processName,Process1
;   applyToModels,StrainRelief_ widercable+ties_v2
;   profileName,.2  (modified)
;   profileVersion,2017-12-30 07:53:15
;   baseProfile,Default
;   printMaterial,PETG
;   printQuality,Medium
;   printExtruders,
;   extruderName,Extruder 1
;   extruderToolheadNumber,0
;   extruderDiameter,0.4
;   extruderAutoWidth,0
;   extruderWidth,0.4
;   extrusionMultiplier,1.05
;   extruderUseRetract,1
;   extruderRetractionDistance,6.6
;   extruderExtraRestartDistance,0
;   extruderRetractionZLift,0.2
;   extruderRetractionSpeed,3600
;   extruderUseCoasting,1
;   extruderCoastingDistance,0.2
;   extruderUseWipe,0
;   extruderWipeDistance,5
;   primaryExtruder,0
;   layerHeight,0.2
;   topSolidLayers,3
;   bottomSolidLayers,3
;   perimeterOutlines,3
;   printPerimetersInsideOut,1
;   startPointOption,2
;   startPointOriginX,0
;   startPointOriginY,0
;   sequentialIslands,0
;   spiralVaseMode,0
;   firstLayerHeightPercentage,50
;   firstLayerWidthPercentage,125
;   firstLayerUnderspeed,0.5
;   useRaft,0
;   raftExtruder,0
;   raftTopLayers,2
;   raftBaseLayers,2
;   raftOffset,14.5
;   raftSeparationDistance,0.14
;   raftTopInfill,100
;   aboveRaftSpeedMultiplier,0.3
;   useSkirt,1
;   skirtExtruder,0
;   skirtLayers,1
;   skirtOutlines,3
;   skirtOffset,10
;   usePrimePillar,0
;   primePillarExtruder,999
;   primePillarWidth,12
;   primePillarLocation,7
;   primePillarSpeedMultiplier,1
;   useOozeShield,0
;   oozeShieldExtruder,999
;   oozeShieldOffset,2
;   oozeShieldOutlines,1
;   oozeShieldSidewallShape,1
;   oozeShieldSidewallAngle,30
;   oozeShieldSpeedMultiplier,1
;   infillExtruder,0
;   internalInfillPattern,Fast Honeycomb
;   externalInfillPattern,Rectilinear
;   infillPercentage,25
;   outlineOverlapPercentage,20
;   infillExtrusionWidthPercentage,100
;   minInfillLength,5
;   infillLayerInterval,1
;   internalInfillAngles,0
;   overlapInternalInfillAngles,0
;   externalInfillAngles,45,-45
;   generateSupport,1
;   supportExtruder,0
;   supportInfillPercentage,10
;   supportExtraInflation,0
;   supportBaseLayers,2
;   denseSupportExtruder,0
;   denseSupportLayers,2
;   denseSupportInfillPercentage,50
;   supportLayerInterval,1
;   supportHorizontalPartOffset,0.6
;   supportUpperSeparationLayers,1
;   supportLowerSeparationLayers,1
;   supportType,0
;   supportGridSpacing,4
;   maxOverhangAngle,65
;   supportAngles,34
;   temperatureName,Extruder 1 Temperature,Heated Bed
;   temperatureNumber,0,0
;   temperatureSetpointCount,1,1
;   temperatureSetpointLayers,1,1
;   temperatureSetpointTemperatures,200,60
;   temperatureStabilizeAtStartup,1,1
;   temperatureHeatedBed,0,1
;   temperatureRelayBetweenLayers,0,0
;   temperatureRelayBetweenLoops,0,0
;   fanLayers,1,6
;   fanSpeeds,0,100
;   blipFanToFullPower,1
;   adjustSpeedForCooling,1
;   minSpeedLayerTime,15
;   minCoolingSpeedSlowdown,20
;   increaseFanForCooling,0
;   minFanLayerTime,45
;   maxCoolingFanSpeed,100
;   increaseFanForBridging,0
;   bridgingFanSpeed,100
;   use5D,1
;   relativeEdistances,0
;   allowEaxisZeroing,1
;   independentExtruderAxes,0
;   includeM10123,0
;   stickySupport,1
;   applyToolheadOffsets,0
;   gcodeXoffset,0
;   gcodeYoffset,0
;   gcodeZoffset,0
;   overrideMachineDefinition,1
;   machineTypeOverride,0
;   strokeXoverride,300
;   strokeYoverride,220
;   strokeZoverride,290
;   originOffsetXoverride,0
;   originOffsetYoverride,0
;   originOffsetZoverride,0
;   homeXdirOverride,-1
;   homeYdirOverride,-1
;   homeZdirOverride,-1
;   flipXoverride,1
;   flipYoverride,-1
;   flipZoverride,1
;   toolheadOffsets,0,0|0,0|0,0|0,0|0,0|0,0
;   overrideFirmwareConfiguration,1
;   firmwareTypeOverride,RepRap (Marlin/Repetier/Sprinter)
;   GPXconfigOverride,r2
;   baudRateOverride,115200
;   overridePrinterModels,0
;   printerModelsOverride
;   startingGcode,;#############-- Beginning of Starting Script --#############,M117 Heating bed & Nozzle ; 		Message,M190 S55 ;				Set bed temp to 55 wait,M140 S[bed0_temperature] ; 		set bed temp no wait,M109 S[extruder0_temperature] ;		set hotend temp,M190 S[bed0_temperature] ; 		set bed temp wait,G21 ;					metric values,G90 ;					absolute positioning,M82 ;					set extruder to absolute mode,M107 ;					start with the fan off,M117 Going Home ; 			Message,G1 Z5 ;					Lift 5mm,G28 X0 ;				Move x to min endstops,G28 Y0 ;				move Y to min endstops,G0 Z15 ;				Move z 15mm,G4 P2500 ;				Wait 2.5 seconds,G28 Z0,G92 E0 ;				zero the extruded length,;,;#########--Start of wipe--#######,;,M117 Cleaning/Prep'ing Nozzzle ; 		Message,G1 E-6.6000 F4800 ;		 	retract,G1 Z0.420 F1002 ;			move up in prep,T0 ;					tool 0,;#########~~wipe~~#########,G1 Z0.220 F1002 ; 			z to 0.22mm,G1 E0.0000 F1440 ;			prep nozzle,G92 E0 ;				zero extruder,G1 X2 Y10 Z0.090 F1000 ; 		Slow wipe dribble at Z= 0.09mm,G1 X2 Y20 F1800 ; 			10mm wipe,G1 Z0.220 ; 				Raise Z to 0.220 To start wipe,G1 X2 Y25 F4800 ; 			Move to wipe positionn,G1 X2 Y205 E8.3377 ; 			200mm Wipe along left side,G1 X7 Y205 E8.3481 ; 			Move right 5mm - wiping,G1 X7 Y25 E16.6858 ; 			2nd Wipe,G1 X12 Y25 E16.6962 ; 			Move right 5mm - wiping,G1 X12 Y205 E25.0339 ; 			3rd Wipe,G1 X15 Y205 Z.150 F1800 ; 		Z = 0.15mm Move right 3mm - not wiping,G1 X15 Y110 Z0.100 F3600 ; 		Move to middle of table (y = 100) - No wipe,G1 x15 Y100 Z.09 ;			10mm wipe at 0.09mm,G1 Z0 ;					Dab ,G1 Z.15 ;				Lift to .15mm,;,;#########~~End Wipe~~###########,;,G1 F3600 ;				Set speed 60mm/s,M117 Printing...  ;			Message,;,;#############--End of starting script--#############,
;   layerChangeGcode,
;   retractionGcode,
;   toolChangeGcode,
;   endingGcode,;#############-- Beginning of Endng Script --#############,M117 Finished ;			Message,M104 S0 ; 			turn off temperature,M140 S0 ; 			bed off,G91 ; 				Set to Relative Positioning,G1 E-10 F8000 ; 			Retract 10mm @ 8000mm/min,G1 Z10 F8000 ; 			Fast Move up 10mm @ 8000mm/min,G1 Z10 F3600 ; 			Move up 10mm @ 3600mm/min,G90 ; 				Set to Absolute Positioning,G1 X0 Y215 F4800 ; 		Move to Back left,M106 S0 ; 			fan off,M84 ; 				disable Stepper motors,;#############-- End of ending script --#############
;   exportFileFormat,gcode
;   celebration,0
;   celebrationSong,Star Wars
;   postProcessing,
;   defaultSpeed,3600
;   outlineUnderspeed,0.8
;   solidInfillUnderspeed,0.8
;   supportUnderspeed,0.8
;   rapidXYspeed,6000
;   rapidZspeed,1200
;   minBridgingArea,50
;   bridgingExtraInflation,0
;   bridgingExtrusionMultiplier,1
;   bridgingSpeedMultiplier,1
;   useFixedBridgingAngle,0
;   fixedBridgingAngle,0
;   applyBridgingToPerimeters,0
;   filamentDiameters,1.75|1.75|1.75|1.75|1.75|1.75
;   filamentPricesPerKg,25|25|25|25|25|25
;   filamentDensities,1.25|1.25|1.25|1.25|1.25|1.25
;   useMinPrintHeight,0
;   minPrintHeight,0.4
;   useMaxPrintHeight,0
;   maxPrintHeight,0.6
;   useDiaphragm,0
;   diaphragmLayerInterval,20
;   robustSlicing,1
;   mergeAllIntoSolid,0
;   onlyRetractWhenCrossingOutline,1
;   retractBetweenLayers,1
;   useRetractionMinTravel,0
;   retractionMinTravel,3
;   retractWhileWiping,0
;   onlyWipeOutlines,1
;   avoidCrossingOutline,1
;   maxMovementDetourFactor,3
;   toolChangeRetractionDistance,12
;   toolChangeExtraRestartDistance,-0.5
;   toolChangeRetractionSpeed,600
;   externalThinWallType,0
;   internalThinWallType,2
;   thinWallAllowedOverlapPercentage,10
;   singleExtrusionMinLength,1
;   singleExtrusionMinPrintingWidthPercentage,50
;   singleExtrusionMaxPrintingWidthPercentage,200
;   singleExtrusionEndpointExtension,0.2
;   horizontalSizeCompensation,0
G90
M82
M106 S255
G4 P500
M106 S0
;#############-- Beginning of Starting Script --#############
M117 Heating bed & Nozzle ; 		Message
M190 S55 ;				Set bed temp to 55 wait
M140 S60 ; 		set bed temp no wait
M109 S200 ;		set hotend temp
M190 S60 ; 		set bed temp wait
G21 ;					metric values
G90 ;					absolute positioning
M82 ;					set extruder to absolute mode
M107 ;					start with the fan off
M117 Going Home ; 			Message
G1 Z5 ;					Lift 5mm
G28 X0 ;				Move x to min endstops
G28 Y0 ;				move Y to min endstops
G0 Z15 ;				Move z 15mm
G4 P2500 ;				Wait 2.5 seconds
G28 Z0
G92 E0 ;				zero the extruded length
;
;#########--Start of wipe--#######
;
M117 Cleaning/Prep'ing Nozzzle ; 		Message
G1 E-6.6000 F4800 ;		 	retract
G1 Z0.420 F1002 ;			move up in prep
T0 ;					tool 0
;#########~~wipe~~#########
G1 Z0.220 F1002 ; 			z to 0.22mm
G1 E0.0000 F1440 ;			prep nozzle
G92 E0 ;				zero extruder
G1 X2 Y10 Z0.090 F1000 ; 		Slow wipe dribble at Z= 0.09mm
G1 X2 Y20 F1800 ; 			10mm wipe
G1 Z0.220 ; 				Raise Z to 0.220 To start wipe
G1 X2 Y25 F4800 ; 			Move to wipe positionn
G1 X2 Y205 E8.3377 ; 			200mm Wipe along left side
G1 X7 Y205 E8.3481 ; 			Move right 5mm - wiping
G1 X7 Y25 E16.6858 ; 			2nd Wipe
G1 X12 Y25 E16.6962 ; 			Move right 5mm - wiping
G1 X12 Y205 E25.0339 ; 			3rd Wipe
G1 X15 Y205 Z.150 F1800 ; 		Z = 0.15mm Move right 3mm - not wiping
G1 X15 Y110 Z0.100 F3600 ; 		Move to middle of table (y = 100) - No wipe
G1 x15 Y100 Z.09 ;			10mm wipe at 0.09mm
G1 Z0 ;					Dab 
G1 Z.15 ;				Lift to .15mm
;
;#########~~End Wipe~~###########
;
G1 F3600 ;				Set speed 60mm/s
M117 Printing...  ;			Message
;
;#############--End of starting script--#############
G92 E0
G1 E-6.6000 F3600
G1 Z0.300 F1200
; process Process1
; layer 1, Z = 0.100
T0
; tool H0.200 W0.500
; skirt
G1 X148.932 Y65.071 F6000
G1 Z0.100 F1200
G1 E0.0000 F1080
G92 E0
G1 X155.071 Y58.932 E0.3790 F1800
G1 X155.439 Y58.780 E0.3964
G1 X180.561 Y58.780 E1.4931
G1 X180.929 Y58.932 E1.5104
G1 X187.068 Y65.071 E1.8894
G1 X187.220 Y65.439 E1.9068
G1 X187.220 Y91.499 E3.0444
G1 X187.470 Y91.748 E3.0598
G1 X187.622 Y92.116 E3.0772
G1 X187.622 Y110.746 E3.8905
G1 X187.579 Y110.951 E3.8996
G1 X185.776 Y115.015 E4.0937
G1 X185.653 Y115.185 E4.1029
G1 X148.769 Y148.580 E6.2749
G1 X148.635 Y149.022 E6.2950
G1 X148.626 Y149.050 E6.2963
G1 X148.410 Y149.633 E6.3235
G1 X148.399 Y149.661 E6.3248
G1 X147.787 Y151.059 E6.3914
G1 X147.774 Y151.085 E6.3927
G1 X147.493 Y151.636 E6.4197
G1 X147.479 Y151.662 E6.4210
G1 X146.709 Y152.973 E6.4873
G1 X146.694 Y152.998 E6.4886
G1 X146.349 Y153.512 E6.5156
G1 X146.332 Y153.536 E6.5169
G1 X145.414 Y154.747 E6.5832
G1 X145.396 Y154.770 E6.5845
G1 X144.994 Y155.240 E6.6115
G1 X144.974 Y155.262 E6.6128
G1 X143.921 Y156.355 E6.6791
G1 X143.900 Y156.376 E6.6804
G1 X143.448 Y156.793 E6.7072
G1 X143.426 Y156.812 E6.7085
G1 X142.256 Y157.773 E6.7746
G1 X142.232 Y157.791 E6.7759
G1 X141.729 Y158.156 E6.8030
G1 X141.704 Y158.173 E6.8043
G1 X140.420 Y158.994 E6.8709
G1 X140.395 Y159.009 E6.8722
G1 X139.858 Y159.310 E6.8990
G1 X139.832 Y159.323 E6.9003
G1 X138.469 Y159.984 E6.9664
G1 X138.442 Y159.996 E6.9677
G1 X137.867 Y160.234 E6.9949
G1 X137.840 Y160.245 E6.9962
G1 X136.399 Y160.743 E7.0627
G1 X136.371 Y160.752 E7.0640
G1 X135.779 Y160.918 E7.0909
G1 X135.750 Y160.926 E7.0921
G1 X134.271 Y161.250 E7.1582
G1 X134.242 Y161.256 E7.1595
G1 X133.627 Y161.353 E7.1867
G1 X133.598 Y161.356 E7.1880
G1 X132.081 Y161.505 E7.2545
G1 X132.052 Y161.507 E7.2558
G1 X131.437 Y161.531 E7.2827
G1 X131.407 Y161.531 E7.2840
G1 X129.893 Y161.501 E7.3501
G1 X129.863 Y161.500 E7.3514
G1 X129.243 Y161.450 E7.3785
G1 X129.214 Y161.447 E7.3798
G1 X127.704 Y161.237 E7.4464
G1 X127.675 Y161.232 E7.4476
G1 X127.072 Y161.112 E7.4745
G1 X127.043 Y161.106 E7.4758
G1 X125.578 Y160.723 E7.5419
G1 X125.549 Y160.715 E7.5432
G1 X124.958 Y160.522 E7.5703
G1 X124.930 Y160.512 E7.5716
G1 X123.511 Y159.955 E7.6382
G1 X123.484 Y159.944 E7.6395
G1 X122.925 Y159.686 E7.6663
G1 X122.899 Y159.673 E7.6676
G1 X121.563 Y158.959 E7.7337
G1 X121.538 Y158.944 E7.7350
G1 X121.007 Y158.619 E7.7622
G1 X120.983 Y158.603 E7.7635
G1 X119.731 Y157.729 E7.8301
G1 X119.707 Y157.712 E7.8314
G1 X119.222 Y157.328 E7.8584
G1 X119.199 Y157.309 E7.8597
G1 X118.064 Y156.299 E7.9260
G1 X118.043 Y156.279 E7.9273
G1 X117.606 Y155.841 E7.9543
G1 X117.586 Y155.820 E7.9556
G1 X116.577 Y154.683 E8.0219
G1 X116.558 Y154.660 E8.0232
G1 X116.176 Y154.174 E8.0502
G1 X116.158 Y154.150 E8.0515
G1 X115.290 Y152.903 E8.1178
G1 X115.274 Y152.879 E8.1191
G1 X114.951 Y152.351 E8.1461
G1 X114.937 Y152.325 E8.1474
G1 X114.222 Y150.985 E8.2137
G1 X114.208 Y150.958 E8.2150
G1 X113.950 Y150.396 E8.2420
G1 X113.938 Y150.369 E8.2433
G1 X113.386 Y148.954 E8.3096
G1 X113.376 Y148.926 E8.3109
G1 X113.185 Y148.337 E8.3379
G1 X113.177 Y148.309 E8.3392
G1 X112.795 Y146.840 E8.4055
G1 X112.788 Y146.811 E8.4068
G1 X112.669 Y146.208 E8.4336
G1 X112.664 Y146.179 E8.4349
G1 X112.456 Y144.679 E8.5010
G1 X112.453 Y144.650 E8.5023
G1 X112.405 Y144.029 E8.5294
G1 X112.403 Y144.000 E8.5307
G1 X112.375 Y142.474 E8.5974
G1 X112.375 Y142.444 E8.5987
G1 X112.400 Y141.826 E8.6257
G1 X112.402 Y141.797 E8.6270
G1 X112.552 Y140.285 E8.6933
G1 X112.556 Y140.255 E8.6946
G1 X112.653 Y139.644 E8.7216
G1 X112.659 Y139.616 E8.7229
G1 X112.985 Y138.133 E8.7891
G1 X112.992 Y138.105 E8.7904
G1 X113.159 Y137.513 E8.8173
G1 X113.168 Y137.485 E8.8185
G1 X113.664 Y136.056 E8.8846
G1 X113.675 Y136.028 E8.8859
G1 X113.912 Y135.457 E8.9129
G1 X113.924 Y135.430 E8.9142
G1 X114.588 Y134.061 E8.9806
G1 X114.601 Y134.035 E8.9819
G1 X114.906 Y133.492 E9.0090
G1 X114.921 Y133.467 E9.0103
G1 X115.745 Y132.182 E9.0769
G1 X115.761 Y132.158 E9.0782
G1 X116.126 Y131.658 E9.1052
G1 X116.144 Y131.634 E9.1065
G1 X117.109 Y130.461 E9.1728
G1 X117.128 Y130.439 E9.1741
G1 X117.548 Y129.985 E9.2011
G1 X117.569 Y129.964 E9.2024
G1 X118.665 Y128.911 E9.2687
G1 X118.687 Y128.892 E9.2700
G1 X119.158 Y128.490 E9.2970
G1 X119.181 Y128.472 E9.2983
G1 X120.393 Y127.556 E9.3647
G1 X120.417 Y127.539 E9.3659
G1 X120.932 Y127.195 E9.3930
G1 X120.957 Y127.180 E9.3942
G1 X122.267 Y126.414 E9.4605
G1 X122.293 Y126.400 E9.4618
G1 X122.841 Y126.121 E9.4886
G1 X122.867 Y126.108 E9.4899
G1 X123.749 Y125.723 E9.5319
G1 X135.023 Y105.646 E10.5371
G1 X135.022 Y94.355 E11.0299
G1 X135.063 Y94.156 E11.0388
G1 X136.766 Y90.189 E11.2273
G1 X136.883 Y90.022 E11.2362
G1 X139.970 Y87.091 E11.4220
G1 X140.130 Y86.988 E11.4303
G1 X140.780 Y86.729 E11.4609
G1 X140.780 Y85.439 E11.5172
G1 X140.932 Y85.071 E11.5345
G1 X148.780 Y77.224 E12.0190
G1 X148.780 Y65.439 E12.5335
G1 X148.856 Y65.256 E12.5421
G1 X148.932 Y65.071 F1800
G1 X149.271 Y65.298 F6000
G92 E0
G1 X155.298 Y59.271 E0.3721 F1800
G1 X155.519 Y59.180 E0.3825
G1 X180.482 Y59.180 E1.4722
G1 X180.702 Y59.271 E1.4826
G1 X186.729 Y65.298 E1.8547
G1 X186.820 Y65.519 E1.8651
G1 X186.820 Y91.664 E3.0065
G1 X187.131 Y91.975 E3.0257
G1 X187.222 Y92.195 E3.0361
G1 X187.222 Y110.704 E3.8441
G1 X187.196 Y110.827 E3.8495
G1 X185.427 Y114.815 E4.0400
G1 X185.353 Y114.917 E4.0455
G1 X148.419 Y148.358 E6.2205
G1 X148.254 Y148.900 E6.2452
G1 X148.248 Y148.917 E6.2460
G1 X148.037 Y149.489 E6.2727
G1 X148.030 Y149.506 E6.2734
G1 X147.423 Y150.893 E6.3395
G1 X147.415 Y150.909 E6.3403
G1 X147.139 Y151.449 E6.3668
G1 X147.131 Y151.465 E6.3676
G1 X146.367 Y152.765 E6.4334
G1 X146.358 Y152.780 E6.4342
G1 X146.020 Y153.285 E6.4607
G1 X146.010 Y153.299 E6.4614
G1 X145.099 Y154.500 E6.5273
G1 X145.088 Y154.514 E6.5280
G1 X144.694 Y154.975 E6.5545
G1 X144.682 Y154.989 E6.5553
G1 X143.637 Y156.073 E6.6210
G1 X143.625 Y156.086 E6.6218
G1 X143.181 Y156.495 E6.6482
G1 X143.168 Y156.507 E6.6489
G1 X142.007 Y157.460 E6.7145
G1 X141.992 Y157.471 E6.7153
G1 X141.499 Y157.829 E6.7419
G1 X141.484 Y157.839 E6.7427
G1 X140.209 Y158.654 E6.8087
G1 X140.194 Y158.663 E6.8095
G1 X139.668 Y158.958 E6.8359
G1 X139.652 Y158.966 E6.8366
G1 X138.300 Y159.622 E6.9022
G1 X138.284 Y159.629 E6.9030
G1 X137.720 Y159.862 E6.9296
G1 X137.703 Y159.868 E6.9304
G1 X136.274 Y160.363 E6.9964
G1 X136.257 Y160.368 E6.9972
G1 X135.676 Y160.532 E7.0236
G1 X135.659 Y160.536 E7.0243
G1 X134.191 Y160.858 E7.0899
G1 X134.174 Y160.861 E7.0907
G1 X133.571 Y160.957 E7.1173
G1 X133.553 Y160.959 E7.1181
G1 X132.048 Y161.106 E7.1842
G1 X132.030 Y161.107 E7.1849
G1 X131.427 Y161.131 E7.2113
G1 X131.409 Y161.131 E7.2120
G1 X129.907 Y161.101 E7.2776
