; G-Code generated by Simplify3D(R) Version 4.0.0
; Mar 30, 2018 at 4:35:24 PM
; Settings Summary
;   processName,Process1
;   applyToModels,Cr10S_Full_Bed_Calibration_V2
;   profileName,CR-10 Octo PLA
;   profileVersion,2018-03-29 16:49:43
;   baseProfile,Creality CR-10(2)
;   printMaterial,PLA+
;   printQuality,Fast
;   printExtruders,
;   extruderName,Primary Extruder
;   extruderToolheadNumber,0
;   extruderDiameter,0.4
;   extruderAutoWidth,0
;   extruderWidth,0.46
;   extrusionMultiplier,1
;   extruderUseRetract,1
;   extruderRetractionDistance,6
;   extruderExtraRestartDistance,0
;   extruderRetractionZLift,0.1
;   extruderRetractionSpeed,3600
;   extruderUseCoasting,0
;   extruderCoastingDistance,0.2
;   extruderUseWipe,0
;   extruderWipeDistance,6
;   primaryExtruder,0
;   layerHeight,0.2
;   topSolidLayers,4
;   bottomSolidLayers,4
;   perimeterOutlines,3
;   printPerimetersInsideOut,1
;   startPointOption,2
;   startPointOriginX,0
;   startPointOriginY,500
;   sequentialIslands,0
;   spiralVaseMode,0
;   firstLayerHeightPercentage,50
;   firstLayerWidthPercentage,110
;   firstLayerUnderspeed,0.5
;   useRaft,0
;   raftExtruder,0
;   raftTopLayers,3
;   raftBaseLayers,2
;   raftOffset,3
;   raftSeparationDistance,0.14
;   raftTopInfill,100
;   aboveRaftSpeedMultiplier,0.3
;   useSkirt,0
;   skirtExtruder,0
;   skirtLayers,1
;   skirtOutlines,1
;   skirtOffset,4
;   usePrimePillar,0
;   primePillarExtruder,999
;   primePillarWidth,12
;   primePillarLocation,7
;   primePillarSpeedMultiplier,1
;   useOozeShield,0
;   oozeShieldExtruder,999
;   oozeShieldOffset,2
;   oozeShieldOutlines,1
;   oozeShieldSidewallShape,1
;   oozeShieldSidewallAngle,30
;   oozeShieldSpeedMultiplier,1
;   infillExtruder,0
;   internalInfillPattern,Rectilinear
;   externalInfillPattern,Rectilinear
;   infillPercentage,25
;   outlineOverlapPercentage,25
;   infillExtrusionWidthPercentage,100
;   minInfillLength,5
;   infillLayerInterval,1
;   internalInfillAngles,45,-45
;   overlapInternalInfillAngles,0
;   externalInfillAngles,90,180
;   generateSupport,0
;   supportExtruder,0
;   supportInfillPercentage,30
;   supportExtraInflation,0
;   supportBaseLayers,0
;   denseSupportExtruder,0
;   denseSupportLayers,0
;   denseSupportInfillPercentage,70
;   supportLayerInterval,1
;   supportHorizontalPartOffset,0.4
;   supportUpperSeparationLayers,1
;   supportLowerSeparationLayers,1
;   supportType,0
;   supportGridSpacing,4.5
;   maxOverhangAngle,45
;   supportAngles,0
;   temperatureName,Primary Extruder,Heated Bed
;   temperatureNumber,0,0
;   temperatureSetpointCount,1,1
;   temperatureSetpointLayers,1,1
;   temperatureSetpointTemperatures,205,55
;   temperatureStabilizeAtStartup,1,1
;   temperatureHeatedBed,0,1
;   temperatureRelayBetweenLayers,0,0
;   temperatureRelayBetweenLoops,0,0
;   fanLayers,1,2,5
;   fanSpeeds,0,90,100
;   blipFanToFullPower,1
;   adjustSpeedForCooling,0
;   minSpeedLayerTime,15
;   minCoolingSpeedSlowdown,50
;   increaseFanForCooling,0
;   minFanLayerTime,45
;   maxCoolingFanSpeed,100
;   increaseFanForBridging,1
;   bridgingFanSpeed,100
;   use5D,1
;   relativeEdistances,0
;   allowEaxisZeroing,1
;   independentExtruderAxes,0
;   includeM10123,0
;   stickySupport,1
;   applyToolheadOffsets,0
;   gcodeXoffset,0
;   gcodeYoffset,0
;   gcodeZoffset,0
;   overrideMachineDefinition,1
;   machineTypeOverride,0
;   strokeXoverride,300
;   strokeYoverride,300
;   strokeZoverride,400
;   originOffsetXoverride,0
;   originOffsetYoverride,0
;   originOffsetZoverride,0
;   homeXdirOverride,-1
;   homeYdirOverride,-1
;   homeZdirOverride,-1
;   flipXoverride,1
;   flipYoverride,-1
;   flipZoverride,1
;   toolheadOffsets,0,0|0,0|0,0|0,0|0,0|0,0
;   overrideFirmwareConfiguration,1
;   firmwareTypeOverride,RepRap (Marlin/Repetier/Sprinter)
;   GPXconfigOverride,r2
;   baudRateOverride,115200
;   overridePrinterModels,1
;   printerModelsOverride
;   startingGcode,G1 Z10.0 F2000,G28 ; home all axes,G29 ;Mesh bed leveling,G1 Z20.0 F5000 ; move z up little to prevent scratching of surface,G1 X0.1 Y20 Z0.3 F5000.0 ; move to start-line position,G1 X0.1 Y200.0 Z0.3 F1500.0 E15 ; draw 1st line,G1 X0.4 Y200.0 Z0.3 F5000.0 ; move to side a little,G1 X0.4 Y20 Z0.3 F1500.0 E30 ; draw 2nd line,; G1 E27 F5000 ; retract filament 5mm,G92 E0 ; reset extruder,; done purging extruder,G1 Z5.0 F5000 ; move z up little to prevent scratching of surface,M900 K45 ; Linear Advance
;   layerChangeGcode,
;   retractionGcode,
;   toolChangeGcode,
;   endingGcode,G91 ; Relative positioning,G1 E-2 F900 ; Retract 2mm at 15mm/sec to reduce filament ooze,G1 F600 Z+10 ; Raise off print 10 mm at 2mm/sec,G90 ; Absolute positioning,G1 F1500 G1 X0 Y300 Z250,;G1 F4000 X10 Y207 ;go to rear corner at 100mm/sec,M104 S0 ; Turn off hot end heater,M107 ; Turn off print cooler,M140 S0 ; Disable heated bed,G92 E0 ; Reset extruder position,M84 ; Turn steppers off,M117 Done Yo,M300 S1567 P240
;   exportFileFormat,gcode
;   celebration,0
;   celebrationSong,Star Wars
;   postProcessing,
;   defaultSpeed,2700
;   outlineUnderspeed,0.5
;   solidInfillUnderspeed,0.8
;   supportUnderspeed,0.8
;   rapidXYspeed,7200
;   rapidZspeed,1002
;   minBridgingArea,50
;   bridgingExtraInflation,0
;   bridgingExtrusionMultiplier,1
;   bridgingSpeedMultiplier,1
;   useFixedBridgingAngle,0
;   fixedBridgingAngle,0
;   applyBridgingToPerimeters,1
;   filamentDiameters,1.75|1.75|1.75|1.75|1.75|1.75
;   filamentPricesPerKg,150|150|46|46|46|46
;   filamentDensities,1.25|1.25|1.25|1.25|1.25|1.25
;   useMinPrintHeight,0
;   minPrintHeight,0
;   useMaxPrintHeight,0
;   maxPrintHeight,3.25
;   useDiaphragm,0
;   diaphragmLayerInterval,20
;   robustSlicing,1
;   mergeAllIntoSolid,0
;   onlyRetractWhenCrossingOutline,0
;   retractBetweenLayers,0
;   useRetractionMinTravel,0
;   retractionMinTravel,3
;   retractWhileWiping,1
;   onlyWipeOutlines,1
;   avoidCrossingOutline,1
;   maxMovementDetourFactor,3
;   toolChangeRetractionDistance,12
;   toolChangeExtraRestartDistance,-0.5
;   toolChangeRetractionSpeed,600
;   externalThinWallType,1
;   internalThinWallType,2
;   thinWallAllowedOverlapPercentage,25
;   singleExtrusionMinLength,0
;   singleExtrusionMinPrintingWidthPercentage,50
;   singleExtrusionMaxPrintingWidthPercentage,200
;   singleExtrusionEndpointExtension,0.2
;   horizontalSizeCompensation,0.01
G90
M82
M106 S255
G4 P500
M106 S0
M140 S55
M190 S55
M104 S205 T0
M109 S205 T0
G1 Z10.0 F2000
G28 ; home all axes
G29 ;Mesh bed leveling
G1 Z20.0 F5000 ; move z up little to prevent scratching of surface
G1 X0.1 Y20 Z0.3 F5000.0 ; move to start-line position
G1 X0.1 Y200.0 Z0.3 F1500.0 E15 ; draw 1st line
G1 X0.4 Y200.0 Z0.3 F5000.0 ; move to side a little
G1 X0.4 Y20 Z0.3 F1500.0 E30 ; draw 2nd line
; G1 E27 F5000 ; retract filament 5mm
G92 E0 ; reset extruder
; done purging extruder
G1 Z5.0 F5000 ; move z up little to prevent scratching of surface
M900 K45 ; Linear Advance
G92 E0
G1 E-6.0000 F3600
G1 Z0.200 F1002
; process Process1
; layer 1, Z = 0.100
T0
; tool H0.200 W0.506
; inner perimeter
G1 X149.182 Y149.068 F7200
G1 Z0.100 F1002
G1 E0.0000 F1080
G92 E0
G1 X149.351 Y148.943 E0.0089 F1012
G1 X149.540 Y148.848 E0.0177
G1 X149.741 Y148.787 E0.0266
G1 X149.950 Y148.761 E0.0355
G1 X150.161 Y148.770 E0.0443
G1 X150.367 Y148.815 E0.0532
G1 X150.562 Y148.894 E0.0621
G1 X150.741 Y149.005 E0.0709
G1 X150.899 Y149.145 E0.0798
G1 X151.030 Y149.309 E0.0887
G1 X151.132 Y149.494 E0.0975
G1 X151.202 Y149.693 E0.1064
G1 X151.236 Y149.900 E0.1153
G1 X151.235 Y150.111 E0.1241
G1 X151.199 Y150.319 E0.1330
G1 X151.128 Y150.517 E0.1419
G1 X151.024 Y150.700 E0.1507
G1 X150.891 Y150.863 E0.1596
G1 X150.731 Y151.002 E0.1684
G1 X150.551 Y151.111 E0.1773
G1 X150.355 Y151.188 E0.1862
G1 X150.149 Y151.231 E0.1950
G1 X149.939 Y151.239 E0.2039
G1 X149.730 Y151.211 E0.2128
G1 X149.529 Y151.147 E0.2216
G1 X149.341 Y151.051 E0.2305
G1 X149.173 Y150.924 E0.2394
G1 X149.028 Y150.771 E0.2482
G1 X148.912 Y150.596 E0.2571
G1 X148.827 Y150.403 E0.2660
G1 X148.751 Y150.101 E0.2791
G1 X148.777 Y149.790 E0.2922
G1 X148.831 Y149.586 E0.3011
G1 X148.917 Y149.394 E0.3099
G1 X149.036 Y149.220 E0.3188
G1 X149.182 Y149.068 E0.3276
G92 E0
G1 E-6.0000 F3600
G1 Z0.200 F1002
G1 X148.847 Y148.686 F7200
G1 Z0.100 F1002
G1 E0.0000 F3600
G92 E0
G1 X149.086 Y148.510 E0.0125 F1012
G1 X149.351 Y148.377 E0.0250
G1 X149.635 Y148.290 E0.0375
G1 X149.930 Y148.253 E0.0500
G1 X150.227 Y148.266 E0.0625
G1 X150.517 Y148.330 E0.0750
G1 X150.792 Y148.441 E0.0875
G1 X151.044 Y148.598 E0.1000
G1 X151.266 Y148.795 E0.1125
G1 X151.452 Y149.026 E0.1249
G1 X151.596 Y149.286 E0.1374
G1 X151.694 Y149.567 E0.1499
G1 X151.743 Y149.860 E0.1624
G1 X151.741 Y150.157 E0.1749
G1 X151.690 Y150.449 E0.1874
G1 X151.589 Y150.729 E0.1999
G1 X151.443 Y150.987 E0.2124
G1 X151.255 Y151.217 E0.2249
G1 X151.031 Y151.412 E0.2374
G1 X150.777 Y151.566 E0.2499
G1 X150.501 Y151.675 E0.2624
G1 X150.210 Y151.736 E0.2749
G1 X149.913 Y151.746 E0.2874
G1 X149.619 Y151.706 E0.2999
G1 X149.336 Y151.617 E0.3124
G1 X149.072 Y151.481 E0.3249
G1 X148.834 Y151.303 E0.3374
G1 X148.631 Y151.087 E0.3499
G1 X148.466 Y150.839 E0.3623
G1 X148.346 Y150.568 E0.3748
G1 X148.240 Y150.142 E0.3933
G1 X148.277 Y149.704 E0.4118
G1 X148.352 Y149.417 E0.4243
G1 X148.474 Y149.146 E0.4368
G1 X148.641 Y148.900 E0.4493
G1 X148.847 Y148.686 E0.4618
G92 E0
G1 E-6.0000 F3600
G1 Z0.200 F1002
; outer perimeter
G1 X148.512 Y148.304 F7200
G1 Z0.100 F1002
G1 E0.0000 F3600
G92 E0
G1 X148.820 Y148.077 E0.0161 F675
G1 X149.163 Y147.905 E0.0322
G1 X149.529 Y147.793 E0.0484
G1 X149.909 Y147.746 E0.0645
G1 X150.292 Y147.763 E0.0806
G1 X150.667 Y147.845 E0.0967
G1 X151.022 Y147.988 E0.1129
G1 X151.348 Y148.190 E0.1290
G1 X151.634 Y148.445 E0.1451
G1 X151.874 Y148.744 E0.1612
G1 X152.060 Y149.079 E0.1774
G1 X152.186 Y149.441 E0.1935
G1 X152.249 Y149.819 E0.2096
G1 X152.247 Y150.202 E0.2257
G1 X152.180 Y150.579 E0.2419
G1 X152.051 Y150.940 E0.2580
G1 X151.862 Y151.274 E0.2741
G1 X151.620 Y151.570 E0.2902
G1 X151.330 Y151.822 E0.3064
G1 X151.003 Y152.021 E0.3225
G1 X150.646 Y152.161 E0.3386
G1 X150.271 Y152.240 E0.3547
G1 X149.888 Y152.253 E0.3709
G1 X149.508 Y152.202 E0.3870
G1 X149.143 Y152.087 E0.4031
G1 X148.802 Y151.912 E0.4192
G1 X148.496 Y151.681 E0.4354
G1 X148.233 Y151.403 E0.4515
G1 X148.021 Y151.083 E0.4676
G1 X147.866 Y150.733 E0.4837
G1 X147.728 Y150.183 E0.5076
G1 X147.776 Y149.618 E0.5314
G1 X147.873 Y149.247 E0.5476
G1 X148.031 Y148.898 E0.5637
G1 X148.246 Y148.581 E0.5798
G1 X148.512 Y148.304 E0.5959
G92 E0
G1 E-6.0000 F3600
G1 Z0.200 F1002
; external single extrusion
G1 X147.444 Y150.200 F7200
G1 Z0.100 F1002
G1 E0.0000 F3600
G92 E0
; tool H0.200 W0.420
G1 X145.502 Y150.200 E0.0678 F675
G1 X145.410 Y150.200 E0.0710
; tool H0.200 W0.428
G1 X145.326 Y150.208 E0.0740
; tool H0.200 W0.462
G1 X145.238 Y150.238 E0.0776
; tool H0.200 W0.460
G1 X145.210 Y150.327 E0.0812
; tool H0.200 W0.424
G1 X145.202 Y150.410 E0.0841
; tool H0.200 W0.416
G1 X145.202 Y150.501 E0.0873
; tool H0.200 W0.418
G1 X145.200 Y154.499 E0.2262
; tool H0.200 W0.420
G1 X145.200 Y154.590 E0.2293
; tool H0.200 W0.428
G1 X145.208 Y154.674 E0.2323
; tool H0.200 W0.464
G1 X145.236 Y154.764 E0.2360
G1 X145.326 Y154.792 E0.2396
; tool H0.200 W0.428
G1 X145.410 Y154.800 E0.2426
; tool H0.200 W0.420
G1 X145.502 Y154.800 E0.2458
G1 X154.498 Y154.800 E0.5599
G1 X154.590 Y154.800 E0.5631
; tool H0.200 W0.428
G1 X154.674 Y154.792 E0.5661
; tool H0.200 W0.464
G1 X154.764 Y154.764 E0.5698
G1 X154.792 Y154.674 E0.5734
; tool H0.200 W0.428
G1 X154.800 Y154.590 E0.5764
; tool H0.200 W0.420
G1 X154.800 Y154.498 E0.5796
G1 X154.800 Y145.502 E0.8938
G1 X154.800 Y145.410 E0.8970
; tool H0.200 W0.428
G1 X154.792 Y145.326 E0.9000
; tool H0.200 W0.464
G1 X154.764 Y145.236 E0.9037
G1 X154.674 Y145.208 E0.9073
; tool H0.200 W0.428
G1 X154.590 Y145.200 E0.9103
; tool H0.200 W0.420
G1 X154.498 Y145.200 E0.9135
G1 X135.502 Y145.200 E1.5769
G1 X135.410 Y145.200 E1.5801
; tool H0.200 W0.428
G1 X135.326 Y145.208 E1.5831
; tool H0.200 W0.464
G1 X135.236 Y145.236 E1.5867
G1 X135.208 Y145.326 E1.5904
; tool H0.200 W0.428
G1 X135.200 Y145.410 E1.5934
; tool H0.200 W0.420
G1 X135.200 Y145.502 E1.5966
G1 X135.200 Y164.498 E2.2600
G1 X135.200 Y164.590 E2.2632
; tool H0.200 W0.428
G1 X135.208 Y164.674 E2.2662
; tool H0.200 W0.464
G1 X135.236 Y164.764 E2.2698
G1 X135.326 Y164.792 E2.2735
; tool H0.200 W0.428
G1 X135.410 Y164.800 E2.2765
; tool H0.200 W0.420
G1 X135.502 Y164.800 E2.2797
G1 X164.498 Y164.800 E3.2922
G1 X164.590 Y164.800 E3.2954
; tool H0.200 W0.428
G1 X164.674 Y164.792 E3.2984
; tool H0.200 W0.464
G1 X164.764 Y164.764 E3.3021
G1 X164.792 Y164.674 E3.3057
; tool H0.200 W0.428
G1 X164.800 Y164.590 E3.3087
; tool H0.200 W0.420
G1 X164.800 Y164.498 E3.3119
G1 X164.800 Y135.502 E4.3246
G1 X164.800 Y135.410 E4.3278
; tool H0.200 W0.428
G1 X164.792 Y135.326 E4.3308
; tool H0.200 W0.464
G1 X164.764 Y135.236 E4.3344
G1 X164.674 Y135.208 E4.3381
; tool H0.200 W0.428
G1 X164.590 Y135.200 E4.3410
; tool H0.200 W0.420
G1 X164.498 Y135.200 E4.3443
G1 X125.502 Y135.200 E5.7060
G1 X125.410 Y135.200 E5.7092
; tool H0.200 W0.428
G1 X125.326 Y135.208 E5.7122
; tool H0.200 W0.464
G1 X125.236 Y135.236 E5.7158
G1 X125.208 Y135.326 E5.7195
; tool H0.200 W0.428
G1 X125.200 Y135.410 E5.7225
; tool H0.200 W0.420
G1 X125.200 Y135.502 E5.7257
G1 X125.200 Y174.498 E7.0875
G1 X125.200 Y174.590 E7.0907
; tool H0.200 W0.428
G1 X125.208 Y174.674 E7.0937
; tool H0.200 W0.464
G1 X125.236 Y174.764 E7.0974
G1 X125.326 Y174.792 E7.1010
; tool H0.200 W0.428
G1 X125.410 Y174.800 E7.1040
; tool H0.200 W0.420
G1 X125.502 Y174.800 E7.1072
G1 X174.498 Y174.800 E8.8186
G1 X174.590 Y174.800 E8.8218
; tool H0.200 W0.428
G1 X174.674 Y174.792 E8.8248
; tool H0.200 W0.464
G1 X174.764 Y174.764 E8.8284
G1 X174.792 Y174.674 E8.8321
; tool H0.200 W0.428
G1 X174.800 Y174.590 E8.8351
; tool H0.200 W0.420
G1 X174.800 Y174.498 E8.8383
G1 X174.800 Y125.502 E10.5494
G1 X174.800 Y125.410 E10.5526
; tool H0.200 W0.428
G1 X174.792 Y125.326 E10.5556
; tool H0.200 W0.464
G1 X174.764 Y125.236 E10.5592
G1 X174.674 Y125.208 E10.5629
; tool H0.200 W0.428
G1 X174.590 Y125.200 E10.5659
; tool H0.200 W0.420
G1 X174.498 Y125.200 E10.5691
G1 X115.502 Y125.200 E12.6294
G1 X115.410 Y125.200 E12.6326
; tool H0.200 W0.428
G1 X115.326 Y125.208 E12.6356
; tool H0.200 W0.464
G1 X115.236 Y125.236 E12.6392
G1 X115.208 Y125.326 E12.6429
; tool H0.200 W0.428
G1 X115.200 Y125.410 E12.6459
; tool H0.200 W0.420
G1 X115.200 Y125.502 E12.6491
G1 X115.200 Y184.498 E14.7094
G1 X115.200 Y184.590 E14.7126
; tool H0.200 W0.428
G1 X115.208 Y184.674 E14.7156
; tool H0.200 W0.464
G1 X115.236 Y184.764 E14.7193
G1 X115.326 Y184.792 E14.7229
; tool H0.200 W0.428
G1 X115.410 Y184.800 E14.7259
; tool H0.200 W0.420
G1 X115.502 Y184.800 E14.7291
G1 X184.498 Y184.800 E17.1385
G1 X184.590 Y184.800 E17.1417
; tool H0.200 W0.428
G1 X184.674 Y184.792 E17.1447
; tool H0.200 W0.464
G1 X184.764 Y184.764 E17.1484
G1 X184.792 Y184.674 E17.1520
; tool H0.200 W0.428
G1 X184.800 Y184.590 E17.1550
; tool H0.200 W0.420
G1 X184.800 Y184.498 E17.1582
G1 X184.800 Y115.502 E19.5678
G1 X184.800 Y115.410 E19.5710
; tool H0.200 W0.428
G1 X184.792 Y115.326 E19.5740
; tool H0.200 W0.464
G1 X184.764 Y115.236 E19.5776
G1 X184.674 Y115.208 E19.5813
; tool H0.200 W0.428
G1 X184.590 Y115.200 E19.5843
; tool H0.200 W0.420
G1 X184.498 Y115.200 E19.5875
G1 X105.502 Y115.200 E22.3463
G1 X105.410 Y115.200 E22.3496
; tool H0.200 W0.428
G1 X105.326 Y115.208 E22.3525
; tool H0.200 W0.464
G1 X105.236 Y115.236 E22.3562
G1 X105.208 Y115.326 E22.3598
; tool H0.200 W0.428
G1 X105.200 Y115.410 E22.3628
; tool H0.200 W0.420
G1 X105.200 Y115.502 E22.3661
G1 X105.200 Y194.498 E25.1248
G1 X105.200 Y194.590 E25.1281
; tool H0.200 W0.428
G1 X105.208 Y194.674 E25.1310
; tool H0.200 W0.464
G1 X105.236 Y194.764 E25.1347
G1 X105.326 Y194.792 E25.1384
; tool H0.200 W0.428
G1 X105.410 Y194.800 E25.1413
; tool H0.200 W0.420
G1 X105.502 Y194.800 E25.1446
G1 X194.498 Y194.800 E28.2531
G1 X194.590 Y194.800 E28.2563
